assets/icons/18px/photo-and-video.svg

<svg width="19" height="18" viewBox="0 0 19 18" fill="none" xmlns="http://www.w3.org/2000/svg">
<g clip-path="url(#clip0_448_1999)">
<path d="M2.33333 5.65C2.33333 5.09771 2.78104 4.65 3.33333 4.65H5.81871C6.14166 4.65 6.44473 4.49403 6.63244 4.23124L7.03421 3.66876C7.22192 3.40597 7.525 3.25 7.84795 3.25H10.8187C11.1417 3.25 11.4447 3.40597 11.6324 3.66876L12.0342 4.23124C12.2219 4.49403 12.525 4.65 12.8479 4.65H15.3333C15.8856 4.65 16.3333 5.09772 16.3333 5.65V12.75C16.3333 13.3023 15.8856 13.75 15.3333 13.75H3.33333C2.78104 13.75 2.33333 13.3023 2.33333 12.75V5.65Z" stroke="white" stroke-linecap="round"/>
<path d="M11.6667 9.08333C11.6667 10.372 10.622 11.4167 9.33333 11.4167C8.04466 11.4167 6.99999 10.372 6.99999 9.08333C6.99999 7.79467 8.04466 6.75 9.33333 6.75C10.622 6.75 11.6667 7.79467 11.6667 9.08333Z" stroke="white" stroke-linecap="round"/>
<path d="M13.6389 6.84723C13.6389 6.56342 13.869 6.33334 14.1528 6.33334V6.33334C14.4366 6.33334 14.6667 6.56342 14.6667 6.84723V6.84723C14.6667 7.13105 14.4366 7.36112 14.1528 7.36112V7.36112C13.869 7.36112 13.6389 7.13105 13.6389 6.84723V6.84723Z" fill="white"/>
</g>
<defs>
<clipPath id="clip0_448_1999">
<rect width="18" height="18" fill="white" transform="translate(0.333328)"/>
</clipPath>
</defs>
</svg>

<svg width="19" height="18" fill="none" xmlns="http://www.w3.org/2000/svg"><g clip-path="url(#clip0_448_1999)"><path d="M2.333 5.65a1 1 0 0 1 1-1H5.82a1 1 0 0 0 .813-.419l.402-.562a1 1 0 0 1 .814-.419h2.97a1 1 0 0 1 .814.419l.402.562a1 1 0 0 0 .814.419h2.485a1 1 0 0 1 1 1v7.1a1 1 0 0 1-1 1h-12a1 1 0 0 1-1-1v-7.1z" stroke="#fff" stroke-linecap="round"/><path d="M11.667 9.083a2.333 2.333 0 1 1-4.667 0 2.333 2.333 0 0 1 4.667 0z" stroke="#fff" stroke-linecap="round"/><path d="M13.639 6.847a.514.514 0 1 1 1.028 0 .514.514 0 1 1-1.028 0z" fill="#fff"/></g><defs><clipPath id="clip0_448_1999"><path fill="#fff" transform="translate(.333)" d="M0 0H18V18H0z"/></clipPath></defs></svg>
